X: 27
T: Jia nai
%%abc-version 2.0
%%abcx-abcm2ps-target-version 5.9.1 (29 Sep 2008)
%%abc-creator hum2abc beta
%%abcx-conversion-date 2013/10/02 07:44:27
%%abc-edited-by Helmut Schaffrath
%%humdrum-veritas 935981296
%%humdrum-veritas-data 91390475
%%continueall 1
%%barnumbers 0
L: 1/16
M: 3/4
K: G
D D2 D2 [I:setbarnb 1]| 
D2> A2 G/ A/ G F2 | 
E4A3 B | 
A2> B2 A3 A | 
A4d4 | 
B4d g e g | 
d4g2 e2 | 
e2> g2 e2 d2 | 
d2 B2 d g e g | 
e g d2 B d B2 | 
D8- | 
D8- | 
D2> z2z8 | 
[M:2/4]d2> d2 d g e e | 
e g e dB4 | 
A2> B2 A d B d | 
A2 A2 d3 B | 
A2> B2 G B A2 | 
E2> G2 E2 G2 | 
E4G3 E | 
D2> G2 E2 G2 | 
E4A B A2 | 
E2> G2 D G E2 | 
D8- | 
D8- | 
D8 | 
D4-D B,2 D | 
E2> F2 E A F A | 
E4A2 F2 | 
E8- | 
E8- | 
E2z6 | 
z4A3 A | 
B2> d2 B2 d2 | 
B2> g2 e g e d | 
d2> e2d4 | 
G4E d B2 | 
A2 A2 G E2 G | 
E4A4 | 
E2> G2E4 | 
D8- | 
D8- | 
D8- | 
D2z6 |]  



